X:1
T:Title
%%score { 1 | 2 }
L:1/8
M:2/4
K:Bb
V:1 treble nm="Grand Piano"
V:2 bass 
V:1
 z2 z[Q:1/4=92] [DF] | [DF][DF] [DF][DF] | [EG] [DF]2 [DF] | [FB][FB] cc | d3 [DF] | %5
 [DF][DF] [DF][DF] | [EG] [DF]2 [DF] | [FB][FB] cd | c3 F | [DF][DF] [DF][DF] | [EG] [DF]2 [DF] | %11
 [FB][FB] cc | d3 d | [Ac][B,GB] [B,FA][B,EG] | [B,DF][B,FB] [B,GB][CGB] | [DFB]2 [CEA]2 | %16
[M:3/8] [B,DB]3 |[M:1/8] [B,DF] |[M:2/4][K:bass] [F,B,D][F,CE][K:treble] [G,_D=E][F,=DF] | %19
 [DB] [Fd]2 [Bd] | [Ac][B,GB] [B,FA][EG] |[M:3/8] [B,DF] [DB]2 |[M:1/8] [DF] | %23
[M:2/4] [B,D][CE] [_D=E][=DF] | [DB] [Fd]2 [FB] | d>c c=B | c3 F | D[CE] [_D=E][=DF] | %28
 [DB] [Fd]2 [Bd] | [Ac][B,GB] [B,FA][EG] |[M:3/8] [B,DF] [DB]2 |[M:1/8] [DB] | %32
[M:2/4] [GB]<[GB] [GB][EG] | [DF][DB] [FB][Gc] | [Fd]2 [Ec]2 |[M:3/8] [DB]3 |] %36
V:2
 z2 z [B,,B,] | [B,,B,][B,,B,] [B,,B,][B,,B,] | [B,,B,] [B,,B,]2 [B,,B,] | %3
 [D,B,][D,B,][K:treble] [F,A,F][F,A,F] | [B,F]3[K:bass] [B,,B,] | [B,,B,][B,,B,] [B,,B,][B,,B,] | %6
 [B,,B,] [B,,B,]2 [B,,B,] | [D,B,][D,B,] [F,A,E][F,B,D] | [F,A,E]3 [F,A,E] | %9
 [B,,B,][B,,B,] [B,,B,][B,,B,] | [B,,B,] [B,,B,]2 [B,,B,] | [D,B,][D,B,][K:treble] [F,A,F][F,A,F] | %12
 [B,F]3 [B,B] | [E,B,]E, E,E, | B,,D, E,=E, | F,2 F,2 |[M:3/8] B,,3 |[M:1/8] B,, | %18
[M:2/4] B,,B,, B,,B,, | [B,,F,] [B,,B,]2 [B,,B,] | [E,B,]E, E,B, |[M:3/8] B,, [B,,F,]2 | %22
[M:1/8] [B,,F,] |[M:2/4] [B,,F,][B,,F,] [B,,G,][B,,F,] | [B,,F,] [B,,B,]2 [D,B,] | %25
 [F,B,F]>[F,A,E] [F,A,E][F,_A,D] | [F,A,E]3 [F,A,] | [B,,F,B,][B,,F,] [B,,G,][B,,F,] | %28
 [B,,F,] [B,,B,]2 [B,,B,] | [E,B,]E, E,B, |[M:3/8] B,, [B,,F,]2 |[M:1/8] [B,,B,] | %32
[M:2/4] [E,B,]<[E,B,] [E,B,][E,B,] | [B,,B,][B,,B,] [D,B,][E,B,] | [F,B,]2 [F,,A,]2 | %35
[M:3/8] [B,,B,]3 |] %36

